src/assets/address.svg

<svg width="30" height="30" fill="none" xmlns="http://www.w3.org/2000/svg"><path d="M20.4 4.8h-1.2V3h-8.4v1.8H9.6v-3h10.8v3Zm-3 24h-4.2v-6h4.2v6Zm-3-1.2h1.8V24h-1.8v3.6Zm0-12h-1.2v-1.8H12v1.8h-1.2v-3h3.6v3Zm0 4.8h-1.2v-1.8H12v1.8h-1.2v-3h3.6v3Zm5.4-4.8h-1.2v-1.8h-1.2v1.8h-1.2v-3h3.6v3Zm-5.4-4.8h-1.2V9H12v1.8h-1.2v-3h3.6v3Zm5.4 0h-1.2V9h-1.2v1.8h-1.2v-3h3.6v3Zm0 9.6h-1.2v-1.8h-1.2v1.8h-1.2v-3h3.6v3ZM6.6 28.8H1.8V11.4h4.8v1.2H3v15h3.6v1.2Z" fill="#091242"/><path d="M4.8 12H3.6V9h3v1.2H4.8V12Zm23.4 16.8H24v-1.2h3v-9h-3v-1.2h4.2v11.4Z" fill="#091242"/><path d="M27 18h-1.2v-1.8H24V15h3v3Zm-4.2 10.8h-15V4.2h15v24.6ZM9 27.6h12.6V5.4H9v22.2Z" fill="#091242"/></svg>

<svg width="30" height="30" viewBox="0 0 30 30" fill="none" xmlns="http://www.w3.org/2000/svg">
<path d="M20.4 4.8H19.2V3H10.8V4.8H9.59998V1.8H20.4V4.8Z" fill="#091242"/>
<path d="M17.4 28.8H13.2V22.8H17.4V28.8ZM14.4 27.6H16.2V24H14.4V27.6Z" fill="#091242"/>
<path d="M14.4 15.6H13.2V13.8H12V15.6H10.8V12.6H14.4V15.6Z" fill="#091242"/>
<path d="M14.4 20.4H13.2V18.6H12V20.4H10.8V17.4H14.4V20.4Z" fill="#091242"/>
<path d="M19.8 15.6H18.6V13.8H17.4V15.6H16.2V12.6H19.8V15.6Z" fill="#091242"/>
<path d="M14.4 10.8H13.2V9H12V10.8H10.8V7.8H14.4V10.8Z" fill="#091242"/>
<path d="M19.8 10.8H18.6V9H17.4V10.8H16.2V7.8H19.8V10.8Z" fill="#091242"/>
<path d="M19.8 20.4H18.6V18.6H17.4V20.4H16.2V17.4H19.8V20.4Z" fill="#091242"/>
<path d="M6.59999 28.8H1.79999V11.4H6.59999V12.6H2.99999V27.6H6.59999V28.8Z" fill="#091242"/>
<path d="M4.79998 12H3.59998V9H6.59998V10.2H4.79998V12Z" fill="#091242"/>
<path d="M28.2 28.8H24V27.6H27V18.6H24V17.4H28.2V28.8Z" fill="#091242"/>
<path d="M27 18H25.8V16.2H24V15H27V18Z" fill="#091242"/>
<path d="M22.8 28.8H7.79999V4.2H22.8V28.8ZM8.99999 27.6H21.6V5.4H8.99999V27.6Z" fill="#091242"/>
</svg>
